X: 22751
T: Land Of The Midnight Sun
R: waltz
M: 3/4
K: Amajor
"A"ed dc cA|"D/G#"ag ge ed|"A"ed dc cA|"D/G#"a>g e2 e/f/e/d/|
"Em/G"ed dc cA|"D/F#"af fe ed|"A/E"c2 cA c/d/e/c/|1 "Esus4"B2 BA BA:|2 "Esus4"B3 B cB||
|:"A"AE A/B/c/d/ ec|"E/G#"Be- ee fg|"F#m"aA ab a<g|"E"e2 eA c/d/e|"D"fd A2 e/f/e/d/|
"A/C#"ec AE FA|1 "Bm7"AB Bc BA|"E"G2 F2 E2:|2 "D"A3 "E"G3|"A" A3 e dB||
"A"c3 A3|"D"[Ff]3 [Dd]3|"E"[Bb]3 [Gg]3|"A" [Aa]3 [ee'] [dd'][Bb]|
"A"[cc']2 [Aa]2 [aa']2|"D"[ff']2 [ff'][ee'] [dd'][cc']|"Esus4" [Bb]2 [Bb]/[cc']/[Bb]/[Aa]/ [Gg][Aa]|"E"[Bb]3 [Ee]2 [Dd]|
"A"c3 A3|"D"[Ff]3 [Dd]3|"E"[Bb]3 [Gg]3|"A"[Aa]3 [Aa] [Bb][cc']|
"D"[dd']2 [dd'][cc'] [Bb][Aa]|"E"[Bb]2 [Bb][Aa] [Gg][Aa]|"A"[Aa]6-|[Aa]4 z2||

